X:682
T:Reel 682
M:4/4
K:Amaj
L:1/8
ED|C>A, (3A,A,A, A,A,A,E,F,A,|E,A,A,C DCB,A,|D>B, (3B,A,B, B,CCB,|CB,CE F2ED|C>A, (3A,A,A, E,A,A,F,|E,A,A,C DCB,A,|DB,CE FBBA| (3A,A,A, CB, A,2|CE|A2EF ABAF|EFEC EFEC|B,BB^A BFDC|B,BB^A BFDB,|AGAG ABAF|ECEF E2EC|DEFD CA,EC|B,A,F,G, A,2|
